X:1
T:Held dig Norge, vort fædreland
T:Held dig Norge, vort fædreland
T:Per Sivle
T:Karl Svensen
C:Karl Svensen
%%score [ 1 2 3 4 ]
L:1/8
Q:1/4=80
M:2/4
K:G
V:1 treble nm="Soprano"
V:2 treble nm="Alto"
V:3 treble-8 nm="Tenor"
V:4 bass nm="Bass"
V:1
 G3/2 A/ | B2 G3/2 F/ | E3/2 ^D/ E F | G2 B3/2 A/ | G2 z B | d2 B G | e2 c A | G2 F G | %8
w: 1.Held dig|Nor- ge, vort|fæ- dre- land! din|æ- re er|vor, din|ret vo- re|søn- ners til|se- ne- ste|
 A z B3/2 c/ | B2 E3/2 F/ | G2 F2 | E2 z2 | z2 |] %13
w: aar. Held dig|Nor- ge, vort|fæ- dre-|land.||
V:2
 G3/2 A/ | B2 G3/2 F/ | E3/2 ^D/ E F | G2 F3/2 F/ | G2 z G | A2 F G | G2 G E | D2 D D | %8
w: 1.Held dig|Nor- ge, vort|fæ- dre- land! din|æ- re er|vor, din|ret vo- re|søn- ners til|se- ne- ste|
 D z ^D3/2 D/ | E2 E3/2 E/ | E2 ^D2 | E2 z2 | z2 |] %13
w: aar. Held dig|Nor- ge, vort|fæ- dre-|land.||
V:3
 E3/2 F/ | G2 B3/2 A/ | G3/2 F/ G A | B2 d3/2 c/ | B2 z d | d2 d B | c2 c c | d2 c B | %8
w: 1.Held dig|Nor- ge, vort|fæ- dre- land! din|æ- re er|vor, din|ret vo- re|søn- ners til|se- ne- ste|
 A z A3/2 A/ | B2 B3/2 c/ | B2 A2 | G2 z2 | z2 |] %13
w: aar. Held dig|Nor- ge, vort|fæ- dre-|land.||
V:4
 E,3/2 F,/ | G,2 B,3/2 A,/ | G,3/2 F,/ G, A, | B,2 D3/2 C/ | B,2 z G, | F,2 D, E, | %6
w: 1.Held dig|Nor- ge, vort|fæ- dre- land! din|æ- re er|vor, din|ret vo- re|
"_\n2.Held dig Norge, vort fædreland!\nHer gror dig en arv af sterkere viljer og sundere marv.\nHeld dig Norge, vort fædreland!\n\n\n3.Held dig Norge, vort fædreland!\nHer gryr mod en dag, da nordmænd ei skilles ved Norriges flad.\nHeld dig Norge, vort fædreland!\n\n\n4.Held dig Norge, vort fædreland!\nVed ord og ved daad du æret skal bænkes i folkenes raad.\nHeld dig Norge, vort fædreland!\n" C,2 E, A, | %7
w: søn- ners til|
 (CB,) A, G, | F, z F,3/2 F,/ | G,2 G,3/2 A,/ | B,2 B,,2 | E,2 z2 | z2 |] %13
w: se- * ne- ste|aar. Held dig|Nor- ge, vort|fæ- dre-|land.||

